svg/Filled/mail_filled.svg

<svg viewBox="0 0 24 24" xmlns="http://www.w3.org/2000/svg" width="24" height="24"><path fill-rule="evenodd" d="M16.88 4c1.62.03 2.61.14 3.42.54a5 5 0 0 1 2.18 2.19c.55 1.07.55 2.47.55 5.27l-.01 1.85c-.03 1.63-.13 2.62-.54 3.42l-.1.17a5 5 0 0 1-2.08 2.02l-.2.1c-.78.32-1.73.4-3.22.43l-1.85.01H7.12c-1.49-.03-2.44-.12-3.21-.45l-.2-.1a5 5 0 0 1-2.1-2l-.09-.18C.98 16.2.97 14.8.97 12c0-2.63 0-4.02.45-5.07l.1-.2.05-.09v-.01a5 5 0 0 1 1.96-2l.18-.09c.8-.4 1.79-.5 3.41-.53L8.98 4zM4.57 6.77c-.15-.1-.23-.16-.34-.18a1 1 0 0 0-.3.03 1 1 0 0 0-.25.22l-.24.32c-.14.2-.2.29-.23.4q-.02.16.05.3c.05.11.15.19.35.34l4.49 3.44-3.4 2.5a.9.9 0 1 0 1.07 1.45l3.82-2.81 1.88 1.44a.9.9 0 0 0 1.1 0l1.87-1.44 3.82 2.81.08.05a.9.9 0 0 0 1.07-1.44l-.08-.06-3.4-2.5 4.5-3.47c.2-.14.28-.21.33-.32q.07-.13.05-.3a1 1 0 0 0-.19-.36l-.28-.36c-.1-.11-.15-.17-.26-.22a1 1 0 0 0-.3-.03c-.1.02-.18.08-.34.2L12 12.36z" clip-rule="evenodd"/></svg>

<svg viewBox="0 0 24 24" xmlns="http://www.w3.org/2000/svg" width="24" height="24"><path fill-rule="evenodd" d="M16.88 4C18.5 4.03 19.49 4.14 20.3 4.54A5 5 0 0 1 22.48 6.73C23.03 7.8 23.03 9.2 23.03 12L23.02 13.85C22.99 15.48 22.89 16.47 22.48 17.27L22.38 17.44A5 5 0 0 1 20.3 19.46L20.1 19.56C19.32 19.88 18.37 19.96 16.88 19.99L7.12 20C5.63 19.97 4.68 19.88 3.91 19.55L3.71 19.45A5 5 0 0 1 1.61 17.45L1.52 17.27C.98 16.2 .97 14.8 .97 12C.97 9.37 .97 7.98 1.42 6.93L1.57 6.63A5 5 0 0 1 3.53 4.63L3.71 4.54C4.51 4.14 5.5 4.04 7.12 4.01L8.98 4ZM4.57 6.77C4.42 6.67 4.34 6.61 4.23 6.59A1 1 0 0 0 3.93 6.62A1 1 0 0 0 3.68 6.84L3.44 7.16C3.3 7.36 3.24 7.45 3.21 7.56Q3.19 7.72 3.26 7.86C3.31 7.97 3.41 8.05 3.61 8.2L8.1 11.64L4.7 14.14A.9 .9 0 1 0 5.77 15.59L9.59 12.78L11.47 14.22A.9 .9 0 0 0 12.57 14.22L14.44 12.78L18.34 15.64A.9 .9 0 0 0 19.41 14.2L15.93 11.64L20.43 8.17C20.63 8.03 20.71 7.96 20.76 7.85Q20.83 7.72 20.81 7.55A1 1 0 0 0 20.62 7.19L20.34 6.83C20.24 6.72 20.19 6.66 20.08 6.61A1 1 0 0 0 19.78 6.58C19.68 6.6 19.6 6.66 19.44 6.78L12 12.36Z" clip-rule="evenodd"/></svg>
